X:16
T:Black Joke
R:Jig
S:Trad Morris
M:6/8
L:1/8
K:G
D|:DGG GFG|AcB AGF|GAB dcB|
 |AcB AGF|G3 E3|1 DEF G2 D:|2 DEF G2 d|
 |:B2d d2d|ede d2c|B2d d2 d|eded2c|
 |B2B BAG|AcB AGF|GAB dcB|AcB AGF|G3 E3|1 DEF G2 d:|2 DEF G2 D|
